X:1
T:Title
%%score { ( 1 3 ) | ( 2 4 ) }
L:1/8
M:3/4
K:C
V:1 treble nm="Grand Piano"
V:3 treble 
V:2 bass 
V:4 bass 
V:1
 z2 z2[Q:1/4=100] [EG]>[EG] | [EG]2 [CE]2 [EG]>[EG] | [EG]2 [CE]2 [EG]>[EG] | [B,FG]4 [B,FA]2 | %4
[M:2/4] [B,D]4 |[M:1/4] [DF]>[DF] |[M:3/4] [DF]2 [B,D]2 [DF]>[DF] | [DF]2 [EG]2 [FA]2 | %8
 [EG]2 E2[K:bass] [F,B,D]2 |[M:2/4] [E,C]4 |[M:1/4][K:treble] c>d |[M:3/4] [Ge]2 [Ec]2 G>A | %12
 [CEG]2 [Ec]2 [Ec]>[Fd] | [Ge]2 [Gc]2 A2 |[M:2/4] d4 |[M:1/4] c>d |[M:3/4] [Ge]2 [Ec]2 G>A | %17
 [CEG]2 E2 G>A | G2 c2 B2 |[M:2/4] [Ec]4 |] %20
V:2
 z2 z2 [C,C]>[C,C] | [C,C]2 [C,G,]2 [C,C]>[C,C] | [C,C]2 [C,G,]2 [C,C]>[C,C] | G,,4 G,,2 | %4
[M:2/4] G,4 |[M:1/4] [G,,G,]>[G,,G,] |[M:3/4] [G,,G,]2 [G,,G,]2 [G,,G,]>[G,,G,] | %7
 [G,,G,]2 [G,,G,]2 [G,,G,]2 | z2 C2 G,,2 |[M:2/4] C,4 |[M:1/4][K:treble] E>F | %11
[M:3/4][K:bass] [C,C]2 [C,G,]2[K:treble] E>F | C,2 [C,G,]2 [C,G,]>[C,G,] | %13
 [C,C]2 [E,C]2[K:treble] [CD^F]2 |[M:2/4] [B,DG]2 [G,B,]2 |[M:1/4] E>F | %16
[M:3/4][K:bass] [C,C]2 [C,G,]2[K:treble] E>F | C,2 [C,G,C]2[K:treble] [G,B,F]>[G,CF] | %18
 [G,B,F]2 [G,DF]2 [G,DF]2 |[M:2/4][K:bass] [C,C]4 |] %20
V:3
 x6 | x6 | x6 | x6 |[M:2/4] x4 |[M:1/4] x2 |[M:3/4] x6 | x6 | G,4[K:bass] z2 |[M:2/4] x4 | %10
[M:1/4][K:treble] x2 |[M:3/4] x6 | x6 | x6 |[M:2/4] z2 F2 |[M:1/4] x2 |[M:3/4] x6 | x6 | x6 | %19
[M:2/4] x4 |] %20
V:4
 x6 | x6 | x6 | x6 |[M:2/4] x4 |[M:1/4] x2 |[M:3/4] x6 | x6 | C,4 z2 |[M:2/4] x4 | %10
[M:1/4][K:treble] x2 |[M:3/4][K:bass] x4[K:treble] x2 | x6 | x4[K:treble] x2 |[M:2/4] x4 | %15
[M:1/4] x2 |[M:3/4][K:bass] x4[K:treble] x2 | x4[K:treble] x2 | x6 |[M:2/4][K:bass] x4 |] %20

